assets/images/arrow_right_white.svg

<svg fill="none" height="100" viewBox="0 0 100 100" width="100" xmlns="http://www.w3.org/2000/svg"><g clip-rule="evenodd" fill="#fff" fill-rule="evenodd"><path d="m47.7394 70.9614c-.291-.2903-.5219-.6352-.6795-1.0148-.1575-.3797-.2386-.7867-.2386-1.1977 0-.4111.0811-.8181.2386-1.1977.1576-.3797.3885-.7245.6795-1.0148l16.5437-16.5375-16.5437-16.5375c-.5868-.5868-.9165-1.3827-.9165-2.2125 0-.8299.3297-1.6257.9165-2.2125s1.3826-.9165 2.2125-.9165c.8298 0 1.6257.3297 2.2125.9165l18.75 18.75c.291.2903.5219.6351.6794 1.0148.1576.3796.2387.7866.2387 1.1977 0 .411-.0811.818-.2387 1.1977-.1575.3796-.3884.7245-.6794 1.0148l-18.75 18.75c-.2903.291-.6352.5219-1.0148.6794-.3797.1576-.7867.2387-1.1977.2387-.4111 0-.8181-.0811-1.1977-.2387-.3797-.1575-.7245-.3884-1.0148-.6794z"/><path d="m28.125 50.0001c0-.8288.3292-1.6237.9153-2.2098.586-.586 1.3809-.9152 2.2097-.9152h31.25c.8288 0 1.6237.3292 2.2097.9152.5861.5861.9153 1.381.9153 2.2098s-.3292 1.6236-.9153 2.2097c-.586.586-1.3809.9153-2.2097.9153h-31.25c-.8288 0-1.6237-.3293-2.2097-.9153-.5861-.5861-.9153-1.3809-.9153-2.2097z"/></g></svg>

<svg width="100" height="100" viewBox="0 0 100 100" fill="none" xmlns="http://www.w3.org/2000/svg">
<path fill-rule="evenodd" clip-rule="evenodd" d="M47.7394 70.9614C47.4484 70.6711 47.2175 70.3262 47.0599 69.9466C46.9024 69.5669 46.8213 69.1599 46.8213 68.7489C46.8213 68.3378 46.9024 67.9308 47.0599 67.5512C47.2175 67.1715 47.4484 66.8267 47.7394 66.5364L64.2831 49.9989L47.7394 33.4614C47.1526 32.8746 46.8229 32.0787 46.8229 31.2489C46.8229 30.419 47.1526 29.6232 47.7394 29.0364C48.3262 28.4496 49.122 28.1199 49.9519 28.1199C50.7817 28.1199 51.5776 28.4496 52.1644 29.0364L70.9144 47.7864C71.2054 48.0767 71.4363 48.4215 71.5938 48.8012C71.7514 49.1808 71.8325 49.5878 71.8325 49.9989C71.8325 50.4099 71.7514 50.8169 71.5938 51.1966C71.4363 51.5762 71.2054 51.9211 70.9144 52.2114L52.1644 70.9614C51.8741 71.2524 51.5292 71.4833 51.1496 71.6408C50.7699 71.7984 50.3629 71.8795 49.9519 71.8795C49.5408 71.8795 49.1338 71.7984 48.7542 71.6408C48.3745 71.4833 48.0297 71.2524 47.7394 70.9614Z" fill="white"/>
<path fill-rule="evenodd" clip-rule="evenodd" d="M28.125 50.0001C28.125 49.1713 28.4542 48.3764 29.0403 47.7903C29.6263 47.2043 30.4212 46.8751 31.25 46.8751L62.5 46.8751C63.3288 46.8751 64.1237 47.2043 64.7097 47.7903C65.2958 48.3764 65.625 49.1713 65.625 50.0001C65.625 50.8289 65.2958 51.6237 64.7097 52.2098C64.1237 52.7958 63.3288 53.1251 62.5 53.1251L31.25 53.1251C30.4212 53.1251 29.6263 52.7958 29.0403 52.2098C28.4542 51.6237 28.125 50.8289 28.125 50.0001Z" fill="white"/>
</svg>
